white/block.svg

<!-- Generated by IcoMoon.io -->
<svg version="1.1" xmlns="http://www.w3.org/2000/svg" width="32" height="32" viewBox="0 0 32 32">
<title>block</title>
<path fill="#fff" d="M16 32c-8.837 0-16-7.163-16-16s7.163-16 16-16 16 7.163 16 16-7.163 16-16 16zM11.022 7l5.069 9-5.16 9h10.319l5.25-9-5.25-9h-10.228zM16.452 10.166h2.988l3.349 5.834-3.35 5.834h-2.986l3.349-5.834-3.35-5.834zM12.112 11.026l-1.822-3.236-4.79 8.21 4.748 8.14 1.84-3.21-2.878-4.93 2.902-4.974z"></path>
</svg>

<svg xmlns="http://www.w3.org/2000/svg" width="32" height="32"><path fill="#FFF" d="M16 32C7.163 32 0 24.837 0 16S7.163 0 16 0s16 7.163 16 16-7.163 16-16 16zM11.022 7l5.069 9-5.16 9H21.25l5.25-9-5.25-9H11.022zm5.43 3.166h2.988L22.789 16l-3.35 5.834h-2.986L19.802 16l-3.35-5.834zm-4.34.86L10.29 7.79 5.5 16l4.748 8.14 1.84-3.21L9.21 16l2.902-4.974z"/></svg>
